X: 18335
T: Humours Of Westport, The
R: reel
M: 4/4
K: Gmajor
BGdG eGdG|BGdG cedc|BGdG eGdG|cBAB cedc|
BGdG eGdG|BGdG cedc|Bdgb afgd|cBAB cdef||
g2 gf gdBd|g2 dg fgaf|g2 gf gdBd|cBAB cdef|
g2 gf gdBd|g2 dg fga2|bgaf gdBd|cBAB cedc||

